!!!OTL: 741. Hoffnung auf Gott.
!!!ARE: Europa, Mitteleuropa, Deutschland, Thueringen, Sachsen, Hessen
!!!SCT: B0741
!!!TXL: @@DE
!!!YEM: Copyright 1995, estate of Helmut Schaffrath.
**kern	**text
*ICvox	*
*Ivox	*
*clefG2	*
*M4/4	*
*met(c)	*
*k[f#]	*
*G:	*
=1	=1
!LO:TX:a:t=Sehr mäßig.	!
{8gL	Hof-
8bJ	.
8bL	-fe,
8ddJ	.
4.dd	Herʒ,
8ee	nur
=2	=2
4dd	mit
8a/L	Ge-
8ccJ	.
(4cc^	-duld,
4b)}	.
=3	=3
{4.dd	end-
8b	-lich
8.ee	wirſt
16dd	du
8cc	Ro-
8b	-ſen
=4	=4
4b/	bre-
4a	-chen!
2r}	.
=5	=5
{8gL	O
8bJ	.
8bL	dein
8ddJ	.
4.dd	Va-
8ee	-ter
=6	=6
4dd	iſt
8a/L	voll
8ccJ	.
(4cc^	Huld,
4b)}	.
=7	=7
{4.dd	kind-
8b	-lich
8.ee	darfſt
16dd	du
8cc	ʒu
8b	ihm
=8	=8
4b/	ſpre-
4a	-chen,
2r}	.
=9	=9
{4.a	auf
8cc	dein
4.b	gläu-
8dd	-bi-
=10	=10
4.a	-ges
8cc	Ver-
2b}	-trau'n
=11	=11
{4.ee	wird
8ee	es
(4dd	gnä-
8ee)	.
16ddL	-dig
16ccJ	.
=12	=12
4b/	nie-
4a	-der-
2g}	-ſchaun.
==	==
!!!AGN: Moral - Lied, religioes
!!!GTL: Religioese Lieder
!!!ONB: ESAC (Essen Associative Code) Database: BOEHME
!!!AMT: simple quadruple
!!!AIN: vox
!!!EED: Helmut Schaffrath
!!!EEV: 1.0
!!Volksweiſe in Thüringen, Sachſen. Heſſen und am Niederrhein.
!!@@COMMENT:"Gedicht von Mahlmann 1806. Ʒuerſt in Beckers Jahrbuch ʒum geſelligen Vergnügen
!!für 1807. S. 277. - Das Lied wurde mehrſach komponirt und als Chorarie in Stadt und Land
!!geſungen. Die vorſtehende Melodie war in Thüringen um 1820-40 bekannt."
!!@@END:
!!!Text: S. A. Mahlmann
!!!URL-scan: https://archive.org/details/BoehmeVtLieder1895/page/n595/mode/2up
!!!ENC: Anna Maria Matuszewska
!!!EEV: 2024/18/07
*-	*-
